assets/illustrations/adobe-illustrator-logo.svg

<svg width="50" height="51" viewBox="0 0 50 51" fill="none" xmlns="http://www.w3.org/2000/svg">
<g clip-path="url(#clip0_217_2740)">
<path d="M8.85417 0.200195H41.1458C46.0417 0.200195 50 4.26002 50 9.28139V41.119C50 46.1404 46.0417 50.2002 41.1458 50.2002H8.85417C3.95833 50.2002 0 46.1404 0 41.119V9.28139C0 4.26002 3.95833 0.200195 8.85417 0.200195Z" fill="#330000"/>
<path d="M24.2291 30.2004H16.4791L14.8958 35.2217C14.8541 35.414 14.6875 35.5422 14.5 35.5209H10.5833C10.3541 35.5209 10.2916 35.3927 10.3541 35.1363L17.0625 15.3286C17.125 15.1149 17.1875 14.8799 17.2708 14.6234C17.3541 14.1747 17.3958 13.7046 17.3958 13.2346C17.375 13.1277 17.4583 13.0209 17.5625 12.9995C17.5833 12.9995 17.6041 12.9995 17.625 12.9995H22.9583C23.125 12.9995 23.2083 13.0636 23.2291 13.1705L30.8333 35.179C30.8958 35.414 30.8333 35.5209 30.625 35.5209H26.2708C26.125 35.5422 25.9791 35.4354 25.9375 35.2858L24.2291 30.2004ZM17.6875 25.8628H22.9791C22.8541 25.414 22.6875 24.8799 22.5 24.3243C22.3125 23.7474 22.125 23.1277 21.9375 22.4867C21.7291 21.8243 21.5416 21.1833 21.3333 20.5209C21.125 19.8585 20.9375 19.2388 20.7708 18.6192C20.6041 18.0209 20.4583 17.4653 20.3125 16.9525H20.2708C20.0833 17.8713 19.8541 18.7901 19.5625 19.7089C19.25 20.7346 18.9375 21.8029 18.6041 22.8713C18.3125 23.9611 18 24.9653 17.6875 25.8628Z" fill="#FF9A00"/>
<path d="M35.375 16.6533C34.6875 16.6747 34.0208 16.3969 33.5208 15.9054C33.0416 15.3712 32.7917 14.6661 32.8125 13.9396C32.7917 13.2131 33.0625 12.5294 33.5625 12.0379C34.0625 11.5464 34.7292 11.29 35.4167 11.29C36.2292 11.29 36.8542 11.5464 37.3125 12.0379C37.7708 12.5507 38.0208 13.2345 38 13.9396C38.0208 14.6661 37.7708 15.3712 37.2708 15.9054C36.7916 16.4182 36.0833 16.696 35.375 16.6533ZM33.0417 35.2003V18.7473C33.0417 18.5336 33.125 18.4482 33.3125 18.4482H37.4375C37.625 18.4482 37.7083 18.555 37.7083 18.7473V35.2003C37.7083 35.4353 37.625 35.5422 37.4375 35.5422H33.3542C33.1458 35.5422 33.0417 35.414 33.0417 35.2003Z" fill="#FF9A00"/>
</g>
<defs>
<clipPath id="clip0_217_2740">
<rect width="50" height="50" fill="white" transform="translate(0 0.200195)"/>
</clipPath>
</defs>
</svg>

<svg width="50" height="51" fill="none" xmlns="http://www.w3.org/2000/svg"><g clip-path="url(#a)"><path d="M8.854.2h32.292C46.042.2 50 4.26 50 9.281V41.12c0 5.021-3.958 9.081-8.854 9.081H8.854C3.958 50.2 0 46.14 0 41.12V9.281C0 4.26 3.958.201 8.854.201Z" fill="#300"/><path d="M24.23 30.2h-7.75l-1.584 5.022a.366.366 0 0 1-.396.299h-3.917c-.229 0-.291-.128-.229-.385l6.709-19.807c.062-.214.125-.45.208-.706.083-.448.125-.918.125-1.388-.021-.107.062-.214.166-.236h5.396c.167 0 .25.065.271.171l7.604 22.009c.063.235 0 .342-.208.342h-4.354c-.146.021-.292-.086-.334-.235L24.23 30.2Zm-6.543-4.337h5.292a30.908 30.908 0 0 0-.479-1.539 65.58 65.58 0 0 1-.563-1.837c-.208-.663-.395-1.304-.604-1.966a47.225 47.225 0 0 1-.562-1.902c-.167-.598-.313-1.154-.459-1.666h-.041a26.795 26.795 0 0 1-.709 2.756c-.312 1.026-.625 2.094-.958 3.162a42.693 42.693 0 0 1-.916 2.992Zm17.688-9.21a2.544 2.544 0 0 1-1.854-.748 2.818 2.818 0 0 1-.709-1.965c-.02-.727.25-1.41.75-1.902a2.632 2.632 0 0 1 1.855-.748c.812 0 1.437.256 1.895.748.459.513.709 1.197.688 1.902.02.726-.23 1.431-.73 1.965a2.412 2.412 0 0 1-1.895.748ZM33.042 35.2V18.747c0-.213.083-.299.27-.299h4.126c.187 0 .27.107.27.3V35.2c0 .235-.083.342-.27.342h-4.084c-.208 0-.312-.128-.312-.342Z" fill="#FF9A00"/></g><defs><clipPath id="a"><path fill="#fff" transform="translate(0 .2)" d="M0 0h50v50H0z"/></clipPath></defs></svg>
